X: 3022
T: Bore
%R: bourr\'ee
B: Henry Playford "Apollo's Banquet", London 1687 (5th Edition)
F: https://archive.org/details/apollosbanquetco01rugg
Z: 2017 John Chambers <jc:trillian.mit.edu>
M: C|
L: 1/8
K: Bb
% - - - - - - - - - -
b2 |\
f2g2 f3e | d2e2 c2(BA) |\
B2c2 F2B2 | B3A B2 :: c2 |\
A3A f2ed | c2d2 e3f |
d2gf edcB | A3G G2f2 |\
b3a g2(fe) | def2 A2(GF) |\
e3e e2dc | c3B HB2 |]
% - - - - - - - - - -

%%sep 1 1 500
%%sep 1 1 500

